X:1
T:A barquinha
T:A barquinha
T:Serenata
T:Galáxia Sonora Coimbrã 2020 (A. Caetano)
C:José Dória
Z:Galáxia Sonora Coimbrã 2020 (A. Caetano)
%%score { 1 | 2 }
L:1/8
M:2/4
K:G
V:1 treble nm="Piano"
V:2 bass 
V:1
 z2 z [Bb] | [ee']>[Bb] [cc'][Bb]/[^A^a]/ | [Bb]>[Gg] [Ee][Gg] | [Bb]>[Bb]{/d'} [cc'][Bb] | %4
 [Ff] z z [Bb] | [cc']/[Bb][Bb]/ [ff'][ee'] | [ee'][^d^d'] z [cc'] | [Bb]/[Aa][Gg]/ [Ff][Bb] | %8
 [Ee] z z B | e>B cB/^A/ | B>G EG | B>B{/d} cB | F/F/ z z B | c/BB/ fe | e^d z c | B/AG/ FB |] %16
[K:E] E z z2 | z4 | z4 | z4 | z4 | z4 | z4 | z4 | z4 | z4 | z4 | z4 | z4 | z4 | z4 | z4 | z4 | z4 | %34
 z4 | z4 | z4 | z4 | z4 | z4 | z4 | z4 | z4 | z4 | z4 | z4 | z4 | z4 |] %48
V:2
 z4 | [E,,E,]>B,, [^D,F,A,]B,, | [E,,E,]>B,, [E,G,B,]B,, | [E,,E,]>B,, [E,G,B,]B,, | %4
 [^D,,^D,]>A,, [D,F,A,]A,, | [B,,,B,,]>B,, [^D,F,A,]B,, | [F,,F,]>B,, [^D,F,A,]B,, | %7
 [B,,,B,,]>B,, [^D,F,A,]B,, | [E,,E,]>B,, [E,G,B,]B,, | [E,,E,]>B,, [^D,F,A,]B,, | %10
 [E,,E,]>B,, [E,G,B,]B,, | [E,,E,]>B,, [E,G,B,]B,, | [^D,,^D,]>A,, [D,F,A,]A,, | %13
 [B,,,B,,]>B,, [^D,F,A,]B,, | [B,,,B,,]>B,, [^D,F,A,]B,, | [B,,,B,,]>B,, [^D,F,A,]B,, |] %16
[K:E] [E,,E,]>B,, [E,G,B,]B,, | [E,,E,]>B,, [E,G,B,]B,, | [E,,E,]>B,, [E,G,B,]B,, | %19
 [E,,E,]>B,, [E,G,B,]B,, | z4 | z4 | z4 | z4 | z4 | z4 | z4 | z4 | z4 | z4 | z4 | z4 | z4 | z4 | %34
 z4 | z4 | z4 | z4 | z4 | z4 | z4 | z4 | z4 | z4 | z4 | z4 | z4 | z4 |] %48

